X: 44
T:Trip to Sligo
M:6/8
L:1/8
Q:120
K:G
"Em"E2e BGE|"D"D2d AFD|"Em"E2e BGE|"D"GFE "Em"e2f|
"Em"gfe "G"d^cB|"D"ABG FED|"Em"EFG "Am"AB=c|
1"Bm"BGF "Em"E2D:|2"Bm"BGF "Em"E2e||
"Em"eBe gfe|"D"dAd fed|"Em"eBe gfe|"D"f/2g/2af "Em"gfe|
"D"|f/2g/2af "Em"gfe|"G"d^cB "D"AFA|
"Em"EFG "Am"AB=c|"Bm"BGF "Em"E2z||
